X:1
T: Maria Dundass
C:Nathaniel Gow
R:Reel
Q: 232
K:Gm
M:4/4
L:1/8
|:f|cF F2 c2 Ac|df =ef cA Af|cF F2 c2 Ac|df cA G2 Gf|
cF F2 c2 Ac|df =ef cA Af|cF F2 c2 Ac|df cA G2 Gg|
f1/2g1/2a ga fd df|cf Af cA Ac|f1/2g1/2a ga fd df|cf cA G2 Gg|
f1/2g1/2a ga fd df|cf Af cA Ac|fa ga fg df|cd Af G2 G:|
